X:1
T:Da Pacem Domine
T:Da Pacem Domine
T:Pierre de la Rue fl. 1452 - 1518
T:A &quot;Boxgrove&quot; edition, engraved by Withburga Music 2019 - v5
C:Pierre de la Rue
Z:A "Boxgrove" edition, engraved by Withburga Music 2019 - v5
%%score [ 1 2 3 4 ]
L:1/8
Q:1/2=60
M:2/2
K:F
V:1 treble nm="Soprano" snm="S."
V:2 treble nm="Alto" snm="A."
V:3 treble-8 nm="Tenor" snm="T."
V:4 bass nm="Bass" snm="B."
V:1
 z4 G4 | F4 G4 | z4 =B4 | c4 =B4 | z4 A4 | =B4 c4 | =B2 A4"^" (G2 | G2) ^F2 G4 | z4 =B2 B2 | %9
w: Da|pa- cem|Do-|mi- ne,|in|di- e-|bus _ no-|* * stris:|qui- a|
 A2 G4 c2 | A2 B4 B2 | c2 e4 d2- | d2 ^c2 d4 | z4 d2 d2 | c6 d2- | d2 B4 A2 | B4 z4 | %17
w: non est a-|||* li- us|qui pu-|gnet pro|* no- *|bis,|
 B2 B2 G2 c2- | c B A4"^" (d2 | d)cBA G2 c2- | c B A3 G G2- | G2 F2 G2 B2 | A2 G4 E2 | %23
w: ni- si tu De-|* * us no-||* * * * [ster,|* De- * *|* us no]-|
 F2 A4 G4 ^F2 | G16 |] %25
w: |ster.|
V:2
 D4 C4 | D4 z4 | F4 G4 | F4 z4 | E4 F4 | G4 F2 E2- | E2 D4 C2 | D4 z4 | F2 F2 E2 D2- | %9
w: Da pa-|cem|Do- mi-|ne,|in di-|e- bus _|_ no- *|stris:|qui- a non est|
 D2 G2 E2 F2- | F2 F2 G2 B2- | B2 A4 G2 | A4 z4 | A2 A2 G4- | G2 A4 F2- | F2 E2 F4 | z4 F2 F2 | %17
w: * a- * *||* * li-|us|qui pu- gnet|* pro no-|* * bis,|ni- si|
 D2 G3 F E2- | E2 A3 GFE | D2 G3 F E2- | E D D4 C2 | D2 F2 E2 D2- | D2 B,2 C2 E2- | E2 D4 C2 (D4 | %24
w: tu De- * us|* no- * * *||* * [ster, De-|* * * us|* no]- * *|* * * ster.|
 D16) |] %25
w: _|
V:3
 z4 G4 | A4 G4 | c4 d4 | c4 d4 | c2 e2 d4 | G4 z2 c2 | d4 G4 | A4 G4 | z2 c2 =B2 B2 | c4 z2 F2 | %10
w: Da|pa- cem|Do- mi-|ne, in|di- * e-|bus no-||* stris:|qui- a non|est a-|
 c2 d2 B2 G2 | c4 d4 | e4 d4 | z4 d4 | e4 f4 | B4 c4 | B4 z4 | B2 B2 c3 B | AG F4"^" (B2 | %19
w: li- us qui pu-|gnet pro|no- bis,|qui|pu- gnet|pro no-|bis,|ni- si tu _|_ _ De- *|
 B)A G2 c3 B | AG F2 G4 | A4 G4 | z4 G2 A2- | A2 F2 G4 A4 | G16 |] %25
w: ||* us|no- *|* * * ster.|_|
V:4
 D,4 E,4 | D,4 G,4 | A,4 G,4 | A,4 G,2 =B,2 | A,4 D,4 | z2 G,2 A,4 | D,4 E,4 | D,4 z2 G,2 | %8
w: Da pa-|cem Do-|mi- ne,|in di- *|e- bus|no- *||stris: qui-|
 F,2 F,2 G,4 | z2 C,2 G,2 A,2 | F,2 D,2 G,4 | A,4 B,4 | A,4 z4 | A,4 B,4 | C4 F,4 | G,4 F,4 | %16
w: a non est|a- li- us|qui pu- gnet|pro no-|bis,|qui pu-|gnet pro|no- bis,|
 z4 F,2 F,2 | G,3 F, E,D, C,2- | C,2 F,3 E, D,2 | G,3 F, E,D, C,2 | D,4 E,4 | D,4 z4 | %22
w: ni- si|tu _ _ _ _|_ De- * *|||us|
 D,2 E,4 C,2 | D,4 E,4 D,4 | G,16 |] %25
w: no- * *||ster.|

